X: 13312
T: Flamin' Hen Factory
R: reel
M: 4/4
K: Gdorian
BGDG AGFG|BG (3ABc dD de|fdcd cA{B}AG|ADFA G^cd=c|
BGDG AGFG|BG (3ABc dD de|fdcd cA{B}AG|1 ADFA GBBB:|2 ADFA Gdd^c||
|:dD de fdcf|dGG^F GBAG|F3F FGAG|FGAG (3ABc dc|
BGDG AGFG|BG (3ABc dD de|fdcd cA{B}AG|1 ADFA Gdd^c:|2 ADFA G3A||
K: Gmix
|:BGDG A^FAG|BG (3ABc dD de|fdcd cA{_B}AG|ADFA G^cd=c|
BGDG A^FDG|BG (3ABc dD de|fdcd cA{_B}AG|1 ADFA GBBB:|2 ADFA Gz3||

